X:54
T:Rise a Mile
S:unknown, photocopy
M:9/8
I:speed 250
K:G
B2c |: dBG {A}G2A G2B | dBG {A}GBd {a}gfe | dBG G2A G2E | F2GA2Bc2^c:|
def g2g fed | g2B {c}B2A B2c | def g2g fed | e2A A2B c2A|
def g2g fed | g2B {c}B2A B2c | def {a}gfe agf | eAA A2B gfe ||
BAB g2B g2B | BAB g2B b2B | BAB g2B g2B | AGA A2B c2A|
BAB g2Bg2B | BAB g2B b2B | BAB b2g a2f | gfg e2f gfe ||
